X: 1796
T: Su Gelir Kütüğünden
C: Aytekin Ersan
O: Turkey
F: http://compmusic.upf.edu/node/140
N: muhayyer--turku--raksaksagi--su_gelir--burdur
N: makam= muhayyer
N: form= turku
N: usul= raksaksagi = 9/8
M: 9/8
L: 1/16
K: C _2/4B ^3/4f  
Q: 1/4=444
%%MIDI tuningsystem comma53
g2 a2 aa2a2 | a2g2f e2 z2  | c'2 c'2 ba2a2 | \
w:  Su  ge *  lir  kü  |  tü ğün *  den    |  Su  ge *  lir  kü  | 
a2g2f e2 z2  | e2 e2 g_e dc2 | 
w:  tü ğün *  den    |  İ çil *  mez  *  kö  | 
d2{e}c2B A2 z2  | e2 e2 g_e dc2 | d2{e}c2B A2 z2  | \
w:  pü *  ğün *  den    |  İ çil *  mez  *  kö  |  pü *  ğün *  den    | 
g2 a2 aa2a2 | 
w:  Yı lan  *  ol sam   | 
a2g2f e2 z2  | c'2 c'2 ba2a2 | a2g2f e2 z2  | \
w:  sa rıl *  sam    |  Yı lan  *  ol sam   |  sa rıl *  sam    | 
e2 e2 g_e dc2 | 
w:  Kız la *  rın  *  to  | 
d2{e}c2B A2 z2  | e2 e2 g_e dc2 | d2{e}c2B A2 z2  | \
w:  pu *  ğun *  dan    |  Kız la *  rın  *  to  |  pu *  ğun *  dan    | 
G2 c2 Bc Bc B | 
w:  Gel As *  lım  *  gel   | 
d2c2B A4  | G2 c2 Bc Bc B | d2c2B A4  | \
w:  ya nı *  ma    |  Gel As *  lım  *  gel   |  ya nı *  ma    | 
G2 c2 Bc Bc B | 
w:  Sen  gel *  mez *  sen   | 
d2c2B A4  | e2 c2 Bc Bc B | d2c2B A4  | \
w:  ya nı *  ma    |  Kı ya *  rım  *  ben   |  ca nı *  ma    | 
g2 a2 aa2a2 | a2g2f e2 z2  | 
w:  Su  ge *  lir  kü  |  tü ğün *  den    | 
c'2 c'2 ba2a2 | a2g2f e2 z2  | e2 e2 g_e dc2 | \
w:  Su  ge *  lir  kü  |  tü ğün *  den    |  İ çil *  mez  *  kö  | 
d2{e}c2B A2 z2  | 
w:  pü *  ğün *  den    | 
e2 e2 g_e dc2 | d2{e}c2B A2 z2  | g2 a2 aa2a2 | \
w:  İ çil *  mez  *  kö  |  pü *  ğün *  den    |  Yı lan  *  ol sam   | 
a2g2f e2 z2  | 
w:  sa rıl *  sam    | 
c'2 c'2 ba2a2 | a2g2f e2 z2  | e2 e2 g_e dc2 | \
w:  Yı lan  *  ol sam   |  sa rıl *  sam    |  Kız la *  rın  *  to  | 
d2{e}c2B A2 z2  | 
w:  pu *  ğun *  dan    | 
e2 e2 g_e dc2 | d2{e}c2B A2 z2  | G2 c2 Bc Bc B | \
w:  Kız la *  rın  *  to  |  pu *  ğun *  dan    |  Gel As *  lım  *  gel   | 
d2c2B A4  | 
w:  ya nı *  ma    | 
G2 c2 Bc Bc B | d2c2B A4  | G2 c2 Bc Bc B | \
w:  Gel As *  lım  *  gel   |  ya nı *  ma    |  Sen  gel *  mez *  sen   | 
d2c2B A4  | 
w:  ya nı *  ma    | 
e2 c2 Bc Bc B | d2c2B A4  | |


